assets/img/braze_icons/heart.svg

<svg fill="none" height="24" viewBox="0 0 24 24" width="24" xmlns="http://www.w3.org/2000/svg"><path clip-rule="evenodd" d="m11.9928 3.71703c-2.33995-2.04489-5.80041-2.46334-8.48771-.16725-2.906789 2.48362-3.329119 6.66642-1.0305 9.62432.87253 1.1227 2.57552 2.8095 4.21213 4.3543 1.65577 1.5628 3.30773 3.0396 4.12238 3.7611.0051.0045.0103.0091.0156.0138.0765.0679.1719.1524.2633.2212.1094.0824.2665.1847.4763.2473.2789.0832.5787.0832.8577 0 .2098-.0626.3669-.1649.4763-.2473.0914-.0688.1867-.1533.2633-.2212.0053-.0047.0105-.0093.0156-.0138.8146-.7215 2.4666-2.1983 4.1224-3.7611 1.6366-1.5448 3.3396-3.2316 4.2121-4.3543 2.2898-2.9465 1.9327-7.1616-1.0409-9.63309-2.7172-2.25843-6.1408-1.86965-8.478.17602z" fill="#801ed7" fill-rule="evenodd"/></svg>

<svg width="24" height="24" viewBox="0 0 24 24" fill="none" xmlns="http://www.w3.org/2000/svg">
<path fill-rule="evenodd" clip-rule="evenodd" d="M11.9928 3.71703C9.65285 1.67214 6.19239 1.25369 3.50509 3.54978C0.598301 6.0334 0.175971 10.2162 2.47459 13.1741C3.34712 14.2968 5.05011 15.9836 6.68672 17.5284C8.34249 19.0912 9.99445 20.568 10.8091 21.2895C10.8142 21.294 10.8194 21.2986 10.8247 21.3033C10.9012 21.3712 10.9966 21.4557 11.088 21.5245C11.1974 21.6069 11.3545 21.7092 11.5643 21.7718C11.8432 21.855 12.143 21.855 12.422 21.7718C12.6318 21.7092 12.7889 21.6069 12.8983 21.5245C12.9897 21.4557 13.085 21.3712 13.1616 21.3033C13.1669 21.2986 13.1721 21.294 13.1772 21.2895C13.9918 20.568 15.6438 19.0912 17.2996 17.5284C18.9362 15.9836 20.6392 14.2968 21.5117 13.1741C23.8015 10.2276 23.4444 6.0125 20.4708 3.54101C17.7536 1.28258 14.33 1.67136 11.9928 3.71703Z" fill="#801ED7"/>
</svg>
